X:3735
T:Lobster, The
O:england
R:reel
S:Kevin Finucane
M:C|
K:G
DEGB ABGB|ABGB AEGE|DEGB ABGB|1 dBAc BGGE:|2 dBAc BGGB||
|:d3e dBGB|dGBG AGEG|1 ~d3e dBGB|dBAc BGGB:|2 c3A ~B3A|GABG AGEG||


